X:174
T:Boynon's Delight. THO5.174
M:6/8
L:1/8
B:Thompson's Complete Collection of 200 Favourite Dances Vol.5
F:https://www.libraryofdance.org/manuals/1780c-Thompson-Compleat-5.pdf
Z:vmp. Peter Dunk 2024
Q:3/8=100
K:G
d2d def|gfe dBG|BBB ccc|efg dBG|
d2d def|gfe dBG|efg BdB|G2G G3:|
|:Bdd Bdd|GAB GAB|ccc BBB|FGA FGA|
Bdd Bdd|GAB Bcd|efg BcA|G2G G3:|
W:
W:Allemand to the right & cast off ./.
W:Allemand to the left & cast up ./:
W:lead down one Couple, up again & cast off :/.
W:Right & Left at top :/:

